X: 489
T: Missa In duplicibus minoribus (II) Et iterum Credo
C: Giovanni Perluigi da Palestrina
L: 1/4
M: 4/2
N: Derived from Credo_32_f.krn
Q: "Credo"
V: 1 clef=treble
V: 2 clef=treble
V: 3 clef=treble-8
V: 4 clef=treble-8
V: 5 clef=bass
K: C
[V:1] z8 | 
[V:2] z8 | 
[V:3] E4F4 | 
[V:4] z8 | 
[V:5] z8 | 
[V:1] z8 | 
[V:2] B,4C2A,2 | 
[V:3] G4A4- | 
[V:4] z8 | 
[V:5] z8 | 
[V:1] E4F4 | 
[V:2] C2C2D2D2 | 
[V:3] A2A2D2d2 | 
[V:4] z8 | 
[V:5] z8 | 
[V:1] G4A4- | 
[V:2] E4C2F2- | 
[V:3] c2B2A2d2- | 
[V:4] z8 | 
[V:5] E,4F,2D,2 | 
[V:1] A2A2G4 | 
[V:2] F2F2D4 | 
[V:3] dcc4B2 | 
[V:4] z8 | 
[V:5] F,2F,2G,2G,2 | 
[V:1] E4A4 | 
[V:2] C3D/ E/F4 | 
[V:3] c4z2c2- | 
[V:4] z2A2c2A2 | 
[V:5] A,4F,4 | 
[V:1] G4^F4 | 
[V:2] E4z4 | 
[V:3] cB/ A/G2A4 | 
[V:4] c2c2d2d2 | 
[V:5] C,2E,2D,4 | 
[V:1] G4G4 | 
[V:2] z8 | 
[V:3] c4d4 | 
[V:4] ed2<c2B/ A/B2 | 
[V:5] C,3B,,/ A,,/G,,4 | 
[V:1] G4F4 | 
[V:2] z8 | 
[V:3] e2c2A3B | 
[V:4] c2C2DEFG | 
[V:5] C,4z4 | 
[V:1] E4D4 | 
[V:2] z2G2F4 | 
[V:3] c2C2DEFG | 
[V:4] ABc2A2A2- | 
[V:5] z8 | 
[V:1] C4z4 | 
[V:2] E4D4 | 
[V:3] ABc4B2 | 
[V:4] AGE2F2G2 | 
[V:5] z8 | 
[V:1] E6E2 | 
[V:2] C4z4 | 
[V:3] c2A4G2 | 
[V:4] C2c4B2 | 
[V:5] z4E,4- | 
[V:1] G8 | 
[V:2] z8 | 
[V:3] B2c4BA | 
[V:4] e4d4- | 
[V:5] E,2E,2G,4 | 
[V:1] G4E3F | 
[V:2] z4z2C2- | 
[V:3] B4c4 | 
[V:4] d2e4A2 | 
[V:5] G,4A,4 | 
[V:1] G2G2A4 | 
[V:2] C2B,2C2D2 | 
[V:3] d4A4 | 
[V:4] z4z2A2 | 
[V:5] G,4F,4 | 
[V:1] G3F/ E/F2F2 | 
[V:2] E4A,2D2 | 
[V:3] z8 | 
[V:4] B2c2dcBA | 
[V:5] E,4D,4 | 
[V:1] E4z2B2- | 
[V:2] B,2C2B,4 | 
[V:3] z8 | 
[V:4] ^G2A4^G^F | 
[V:5] E,8- | 
[V:1] B2c2d2B2 | 
[V:2] E4F2G2 | 
[V:3] z8 | 
[V:4] ^G4z4 | 
[V:5] E,4z4 | 
[V:1] c2d2>c2BA | 
[V:2] E2F2G2D2 | 
[V:3] z8 | 
[V:4] z8 | 
[V:5] z8 | 
[V:1] G2A4G2 | 
[V:2] E2F4E2- | 
[V:3] z2A2B2c2 | 
[V:4] z8 | 
[V:5] z8 | 
[V:1] F4E3F | 
[V:2] E2D2E4- | 
[V:3] A2B2c4 | 
[V:4] z4z2A2 | 
[V:5] z8 | 
[V:1] G2E2D4 | 
[V:2] E4z4 | 
[V:3] G4z2G2 | 
[V:4] B2c2A2B2 | 
[V:5] E,4F,2G,2 | 
[V:1] z8 | 
[V:2] z2D4E2 | 
[V:3] G2A2B2G2 | 
[V:4] c2A2GABc | 
[V:5] E,2F,2G,4 | 
[V:1] z2A3^G/ ^F/G2 | 
[V:2] F4E2E2- | 
[V:3] A4z4 | 
[V:4] d2>c2B4 | 
[V:5] D,4E,4 | 
[V:1] A2>B2c2d2 | 
[V:2] ED/ C/D2E2F2 | 
[V:3] z2A2G2A2 | 
[V:4] A4z2A2- | 
[V:5] F,4E,2D,2 | 
[V:1] c2B2c2B2- | 
[V:2] E8- | 
[V:3] z2E2A2GF | 
[V:4] A^G/ ^F/^G2A2B2 | 
[V:5] E,4z2E,2 | 
[V:1] BAA4^G2 | 
[V:2] E8 | 
[V:3] E2e2>d2B2 | 
[V:4] c4B4 | 
[V:5] C,2A,,2E,4 | 
[V:1] A8- | 
[V:2] E8- | 
[V:3] ^c8- | 
[V:4] A8- | 
[V:5] A,,8- | 
[V:1] A8
[V:2] E8
[V:3] c8
[V:4] A8
[V:5] A,,8

